!!!OTL: When I Was in My Prime
!!!ONM: 26.
**kern
*clefG2
!Modal -- Conklin/Pearce 
*k[b-e-a-]
*f:
*M4/4
*MM120
{4f
=1
4g
4e-
(8c
8d)
4e-
=2
2.f}
{4f
=3
4g
4e-
(8c
8d)
4e-
=4
2.f}
{4b-
=5
4cc
4a-
4b-
4cc
=6
4a-
4g
4f}
{4e-
=7
4f
4e-
(8c
8f)
4b-
=8
2a-
4g}
{4f
=9
4f
4e-
(8c
8d)
4e-
=10
2.f}
==
*-
!!!CNT: Folksongs of Maritime Canada
!!!MRD: 1928///-1932///
!!!OCL: Helen Creighton
!!!YOR: Songs and Ballads from Nova Scotia
!!!PPR: J.M. Dent & Sons, Limited
!!!PPP: Toronto, Canada
!!!PDT: 1932///
!!!reprint: Dover Publications, 1992: ISBN 0-486-21703-5
!!!ENC1: Craig Stuart Sapp (music and bibliographic data)                       
!!!ENC2: Marcus Pearce (phrase markings and key designations)                   
!!!ENC3: Darrell Conklin (phrase markings and key designations)   
!!!END: 2002/04/10/
!!!EEV: 2004/06/05
!!!MPN: Mr. Enos Hartlan
!!!PPG: 53
!!!EFL: 26/152
!!!ARE: Canada; Nova Scotia
!!!verses: 7
!!!VTS: 1119194184
